X: 1
T:Lady Anne Montgomery
R:reel
M:C|
K:D
AG|"D"FADA FADA|FAdA "G"B2AG|"D"FADF "A"E2FE|D[BB,][AA,][BB,] D2 DE|
"D"FADA FADA|FAdA B2Bc|"G"dBAF "Em"E2FE| "A"D[BB,][AA,][BB,] "D"D2  :|
|:de|"D"f4 fede|fedB ABde|"Bm"f2fg fede|"Em"faaf "A"e2de|
"D"f2fg fede|fedB ABde|"Bm"fdec "Em"dBA2| "A"e/f/gfe "D"d2:|
T: reel de Montebello
M: C|
L: 1/8
K: Am
|:\
"Am"EABc ecBA | "Fmaj7"FABc ecBA | "G"GABc dBGB | "Em7"edBA GE/F/ ED |
"Am"EABc ecBA | "Fmaj7"FABc AcBA | "G"GABc "Em7"dBGE | EDEG [1 "Am"A3A :|[2 "Am"A2ce ||
|:\
"Am"aece gecA | "G"GABc dcBd | gddf ddgd | "Am"edef (3efe ce |
"Am"aece gecA | "G"GABc dcBd | gedg edBd | "Am"cBcd [1 cAce :|[2 cBAG |]

